files/resources/svgs/general/s-bug-ant.svg

<svg width="24" height="24" viewBox="0 0 24 24" fill="none" xmlns="http://www.w3.org/2000/svg">
<path fill-rule="evenodd" clip-rule="evenodd" d="M8.47762 1.60068C8.83616 1.80808 8.95868 2.26688 8.75128 2.62543C8.55271 2.96869 8.40712 3.34612 8.32551 3.74698C8.38406 3.80445 8.44396 3.86056 8.50514 3.91525C9.32957 2.9 10.5885 2.24988 12.0002 2.24988C13.4129 2.24988 14.6728 2.90105 15.4972 3.9177C15.5579 3.86352 15.6173 3.80796 15.6754 3.75105C15.594 3.34867 15.4481 2.96985 15.2488 2.62543C15.0414 2.26688 15.1639 1.80808 15.5225 1.60068C15.881 1.39327 16.3398 1.51579 16.5472 1.87434C16.9024 2.4883 17.137 3.18123 17.2183 3.91982C17.2416 4.13173 17.1737 4.34356 17.0314 4.50235C16.7896 4.77228 16.5263 5.02265 16.2442 5.25077C16.41 5.72025 16.5002 6.22507 16.5002 6.74988C16.5002 6.95344 16.4866 7.15422 16.4602 7.35129C16.3543 8.14302 15.7073 8.64568 15.0428 8.75414C14.8614 8.78376 14.6791 8.81077 14.496 8.83514C14.6477 9.06225 14.7692 9.31125 14.8549 9.5764C16.1695 9.41548 17.4498 9.14489 18.6867 8.7741C18.6212 7.8808 18.5053 7.00172 18.3417 6.13966C18.2645 5.7327 18.5319 5.34022 18.9388 5.26302C19.3458 5.18582 19.7383 5.45315 19.8155 5.8601C20.0269 6.97493 20.1636 8.11597 20.2201 9.27774C20.2365 9.61516 20.0254 9.92191 19.7043 10.027C18.1774 10.5267 16.5854 10.8819 14.9444 11.0765C14.8703 11.4572 14.7242 11.8122 14.5208 12.1268C16.5869 12.3358 18.5788 12.7992 20.464 13.4852C20.7756 13.5986 20.9758 13.9032 20.9562 14.2343C20.8278 16.404 20.4197 18.4992 19.7674 20.4841C19.638 20.8776 19.2142 21.0917 18.8207 20.9624C18.4272 20.833 18.213 20.4092 18.3424 20.0157C18.8983 18.3244 19.2654 16.547 19.4187 14.7084C18.9182 14.54 18.4101 14.3882 17.895 14.2536C17.9627 14.4882 17.9993 14.7379 17.9993 14.9999C17.9993 18.9557 15.4775 22.4999 11.9993 22.4999C8.52108 22.4999 5.99928 18.9557 5.99928 14.9999C5.99928 14.738 6.03584 14.4885 6.10348 14.2539C5.58888 14.3884 5.08127 14.5401 4.58128 14.7084C4.73457 16.547 5.10172 18.3244 5.65763 20.0157C5.78697 20.4092 5.57282 20.833 5.17932 20.9624C4.78582 21.0917 4.36197 20.8776 4.23263 20.4841C3.58026 18.4992 3.17221 16.404 3.0438 14.2343C3.02421 13.9032 3.22437 13.5986 3.53602 13.4852C5.12188 12.9081 6.78302 12.4886 8.50042 12.2454C8.50368 12.245 8.50694 12.2445 8.5102 12.2441C8.83115 12.1987 9.15404 12.1596 9.47876 12.1267C9.27538 11.8122 9.12926 11.4572 9.05515 11.0765C7.4142 10.8819 5.82214 10.5267 4.29529 10.027C3.97423 9.92191 3.76304 9.61516 3.77946 9.27774C3.83598 8.11597 3.97265 6.97493 4.18412 5.8601C4.26132 5.45315 4.6538 5.18582 5.06076 5.26302C5.46772 5.34022 5.73504 5.7327 5.65784 6.13966C5.49432 7.00172 5.37836 7.8808 5.31284 8.7741C6.54977 9.1449 7.83017 9.41549 9.14473 9.5764C9.23046 9.31122 9.35209 9.0622 9.50389 8.83508C9.32092 8.81073 9.13878 8.78373 8.95749 8.75414C8.29303 8.64568 7.64601 8.14302 7.54009 7.35129C7.51373 7.15422 7.50016 6.95344 7.50016 6.74988C7.50016 6.22396 7.59068 5.71811 7.75718 5.24779C7.47455 5.0189 7.21083 4.76767 6.96868 4.49679C6.8266 4.33784 6.75887 4.12594 6.78244 3.91405C6.86433 3.17761 7.09864 2.48669 7.45287 1.87434C7.66028 1.51579 8.11907 1.39327 8.47762 1.60068Z" fill="#0F172A"/>
</svg>

<svg xmlns="http://www.w3.org/2000/svg" viewBox="0 0 24 24" fill="currentColor" aria-hidden="true">
  <path fill-rule="evenodd" d="M8.478 1.6a.75.75 0 01.273 1.025 3.72 3.72 0 00-.425 1.122c.058.057.118.114.18.168A4.491 4.491 0 0112 2.25c1.413 0 2.673.651 3.497 1.668.06-.054.12-.11.178-.167a3.717 3.717 0 00-.426-1.126.75.75 0 111.298-.75 5.22 5.22 0 01.671 2.045.75.75 0 01-.187.582c-.241.27-.505.52-.787.749a4.495 4.495 0 01.216 2.1c-.106.792-.753 1.295-1.417 1.403-.182.03-.364.057-.547.081.152.227.273.476.359.741a23.122 23.122 0 003.832-.802 23.241 23.241 0 00-.345-2.634.75.75 0 011.474-.28c.21 1.115.348 2.256.404 3.418a.75.75 0 01-.516.749c-1.527.5-3.119.855-4.76 1.05-.074.38-.22.735-.423 1.05a24.61 24.61 0 015.943 1.358.75.75 0 01.492.75 24.665 24.665 0 01-1.189 6.25.75.75 0 01-1.425-.47 23.141 23.141 0 001.077-5.307c-.5-.168-1.009-.32-1.524-.454.068.234.104.484.104.746 0 3.956-2.521 7.5-6 7.5-3.478 0-6-3.544-6-7.5 0-.262.037-.511.104-.746-.514.134-1.022.286-1.522.454a23.14 23.14 0 001.077 5.308.75.75 0 01-1.425.468 24.663 24.663 0 01-1.19-6.25.75.75 0 01.493-.749 24.593 24.593 0 014.964-1.24h.01c.321-.046.644-.085.969-.118a2.982 2.982 0 01-.424-1.05 24.614 24.614 0 01-4.76-1.05.75.75 0 01-.516-.75c.057-1.161.194-2.302.405-3.417a.75.75 0 011.474.28c-.164.862-.28 1.74-.345 2.634 1.237.37 2.517.641 3.832.802.085-.265.207-.514.359-.74a18.732 18.732 0 01-.547-.082c-.664-.108-1.311-.611-1.417-1.403a4.535 4.535 0 01.217-2.103 6.788 6.788 0 01-.788-.751.75.75 0 01-.187-.583 5.22 5.22 0 01.67-2.04.75.75 0 011.026-.273z" clip-rule="evenodd"/>
</svg>
